lib/logo_tmp/nrk-logo-nrk-mp3-title-below.svg

<svg width="36" height="36" viewBox="0 0 36 36" fill="none" xmlns="http://www.w3.org/2000/svg">
<path fill-rule="evenodd" clip-rule="evenodd" d="M0 0H36V36H0V0ZM12.5811 16.5993C12.9025 16.3865 13.2788 16.2719 13.6641 16.2693H16.0446V28.2773H12.7446V20.1358L9.91663 22.2638L7.08863 20.1358V24.3858L3.80763 26.8518V16.2693H6.16813C6.5535 16.2719 6.92979 16.3865 7.25113 16.5993C7.52363 16.7683 9.74663 18.6553 9.91613 18.7993C10.0851 18.6538 12.3086 16.7668 12.5811 16.5993ZM16.5221 16.2693H20.2291L20.4517 16.6325L20.4519 16.6329L20.4526 16.6341C21.9882 19.1402 21.9998 19.1591 22.2511 19.5863C22.3702 19.7397 22.4357 19.9279 22.4375 20.1221C22.4393 20.3163 22.3773 20.5057 22.2611 20.6613C22.0166 21.0673 20.2291 23.9903 20.2291 23.9903H16.5221L18.6656 20.4763C18.7412 20.3733 18.7809 20.2483 18.7784 20.1205C18.776 19.9927 18.7316 19.8693 18.6521 19.7693C18.6281 19.7268 16.5221 16.2693 16.5221 16.2693ZM31.8391 18.2593C31.7146 18.0468 30.6111 16.2693 30.6111 16.2693H22.6771L24.4101 19.1753H28.5886L26.8636 22.0018L28.7871 25.2303L26.9326 28.2803H30.3196C30.6977 27.6616 31.2056 26.8082 31.5378 26.2502C31.684 26.0046 31.7961 25.8162 31.8481 25.7303C31.9649 25.5743 32.0272 25.3843 32.0255 25.1894C32.0238 24.9946 31.9581 24.8057 31.8386 24.6518C31.7523 24.5049 31.4764 24.0621 31.1547 23.5458C30.8424 23.0447 30.4871 22.4744 30.2201 22.0383C30.2201 22.0383 31.6786 19.6213 31.8486 19.3383C31.9655 19.1822 32.0279 18.9921 32.0262 18.7972C32.0245 18.6022 31.9587 18.4132 31.8391 18.2593ZM24.2066 22.4378C23.6846 23.2908 22.8111 24.7198 22.6476 24.9988C22.5325 25.147 22.4692 25.3289 22.4675 25.5165C22.4658 25.7041 22.5258 25.8871 22.6381 26.0373C22.8016 26.3093 23.6821 27.7498 24.2066 28.6078C24.7311 27.7498 25.6111 26.3078 25.7751 26.0373C25.8875 25.8871 25.9474 25.7041 25.9457 25.5165C25.944 25.3289 25.8807 25.147 25.7656 24.9988C25.6021 24.7198 24.7306 23.2908 24.2066 22.4378ZM8.30763 7.77753V14.5601H10.5337V7.77753H8.30763ZM14.8424 14.5601L13.5622 8.85701C13.5007 8.55511 13.3371 8.28361 13.099 8.08803C12.8613 7.88389 12.5573 7.77347 12.2439 7.77753H10.8776L12.4062 14.5601H14.8424ZM15.1768 7.77753V14.5601H17.4028V7.77753H15.1768ZM18.4012 10.1753C18.6082 10.2964 18.8441 10.3591 19.084 10.3568C19.0839 10.3568 19.0839 10.3568 19.0838 10.3568H19.0841C19.0841 10.3568 19.084 10.3568 19.084 10.3568C19.3225 10.3596 19.5572 10.2968 19.7624 10.1753C19.9647 10.0562 20.1326 9.88668 20.2497 9.68332C20.3708 9.47622 20.4336 9.24022 20.4314 9.00032C20.434 8.76188 20.3711 8.52729 20.2497 8.32207C20.1313 8.12091 19.9636 7.95323 19.7624 7.83487C19.5572 7.71357 19.3226 7.65077 19.0841 7.65334C18.8443 7.65115 18.6083 7.71389 18.4012 7.83487C18.198 7.9522 18.0285 8.12002 17.9091 8.32207C17.7876 8.52723 17.7247 8.76186 17.7275 9.00032C17.7251 9.24024 17.7879 9.47628 17.9091 9.68332C18.0272 9.88758 18.1969 10.0572 18.4012 10.1753ZM20.7753 7.77753V14.5601H23.0015V7.77753H20.7753ZM25.963 11.7181C25.8737 11.5686 25.826 11.4906 25.8197 11.484H25.8194C25.751 11.3925 25.7112 11.2828 25.7049 11.1688C25.7089 11.0601 25.7419 10.9546 25.8004 10.863L27.6922 7.77738H25.2465C25.0937 8.02596 24.9551 8.25205 24.8307 8.45563C24.7069 8.65942 24.5749 8.87756 24.4346 9.11001C24.2942 9.34247 24.1556 9.57015 24.0187 9.79305C23.8817 10.0159 23.7623 10.2086 23.6604 10.371C23.5585 10.5334 23.4884 10.6464 23.4502 10.7101C23.3596 10.8468 23.307 11.0051 23.2975 11.1688C23.3093 11.3394 23.3653 11.5039 23.4598 11.6464C23.4979 11.7039 23.5664 11.8153 23.6653 11.9808C23.7638 12.1462 23.8816 12.3388 24.0187 12.5587C24.1557 12.7787 24.2943 13.0047 24.4346 13.237C24.5745 13.4694 24.7065 13.686 24.8307 13.8866C24.9549 14.0872 25.0935 14.3117 25.2465 14.5601H27.6922C27.5136 14.2672 27.3544 14.0045 27.2146 13.7719C27.0742 13.5394 26.9245 13.2926 26.7654 13.0316C26.6062 12.7706 26.455 12.5238 26.3117 12.2913C26.1685 12.0586 26.0523 11.8675 25.963 11.7181Z" fill="white"/>
</svg>

<svg xmlns="http://www.w3.org/2000/svg" viewBox="0 0 36 36"><path fill="#fff" fill-rule="evenodd" d="M0 0h36v36H0V0Zm12.581 16.6a1.986 1.986 0 0 1 1.083-.33h2.38v12.007h-3.3v-8.141l-2.827 2.128-2.828-2.128v4.25l-3.281 2.466V16.269h2.36c.385.003.762.118 1.083.33.273.17 2.496 2.056 2.665 2.2.17-.145 2.393-2.032 2.665-2.2Zm3.941-.33h3.707l.223.363v.001c1.536 2.506 1.548 2.525 1.8 2.952a.887.887 0 0 1 .01 1.075c-.245.406-2.033 3.33-2.033 3.33h-3.707l2.144-3.515a.582.582 0 0 0-.014-.707c-.024-.042-2.13-3.5-2.13-3.5Zm15.317 1.99c-.124-.213-1.228-1.99-1.228-1.99h-7.934l1.733 2.905h4.179l-1.725 2.827 1.923 3.228-1.854 3.05h3.387c.378-.618.886-1.472 1.218-2.03l.31-.52a.89.89 0 0 0-.01-1.078c-.086-.147-.362-.59-.683-1.106a246.39 246.39 0 0 1-.935-1.508l1.629-2.7a.89.89 0 0 0-.01-1.079Zm-7.632 4.178c-.522.853-1.396 2.282-1.56 2.56a.857.857 0 0 0-.009 1.04c.164.271 1.044 1.712 1.569 2.57l1.568-2.57a.856.856 0 0 0-.01-1.04 307.517 307.517 0 0 0-1.558-2.56Zm-15.9-14.66v6.782h2.227V7.778H8.308Zm6.535 6.782-1.28-5.703a1.342 1.342 0 0 0-.463-.769 1.287 1.287 0 0 0-.855-.31h-1.366l1.528 6.782h2.436Zm.335-6.782v6.782h2.226V7.778h-2.226Zm3.224 2.397c.207.121.443.184.683.182.239.003.473-.06.678-.182A1.356 1.356 0 0 0 20.432 9a1.304 1.304 0 0 0-.182-.678 1.374 1.374 0 0 0-.488-.487 1.305 1.305 0 0 0-.678-.182 1.364 1.364 0 0 0-1.175.669c-.121.205-.184.44-.181.678a1.347 1.347 0 0 0 .674 1.175Zm2.374-2.397v6.782h2.227V7.778h-2.227Zm5.188 3.94a5.241 5.241 0 0 0-.143-.234.58.58 0 0 1-.115-.315.61.61 0 0 1 .095-.306l1.892-3.086h-2.445a303.677 303.677 0 0 0-.812 1.333 107.52 107.52 0 0 1-.985 1.6.927.927 0 0 0-.152.459c.011.17.067.335.162.477.038.058.106.17.205.335.099.165.217.358.354.578.137.22.275.446.416.678.14.232.271.449.396.65l.416.673h2.445c-.178-.293-.338-.556-.477-.788a207.644 207.644 0 0 0-.903-1.48c-.143-.233-.26-.425-.349-.574Z" clip-rule="evenodd"/></svg>
